X: 26231
T: Meelick Team, The
R: jig
M: 6/8
K: Edorian
|:A|Bee dBA|BAF E2 D|DEG Eed|BAF EF/G/A|
e/f/gf edB|BAF EDB|DEG Eed|BAF E2:|
|:d|e2 f gfe|beg fed|Beg b2 g|fed e2 f|
g2 f edB|B2 A DFA|dcd ff/e/d|BAF E2:|

